X: 109
T: No_197_Skunk_Dance_Song_(a).krn
N: Derived from No_197_Skunk_Dance_Song_(a).krn
%%abc-version 2.0
%%abcx-abcm2ps-target-version 5.9.1 (29 Sep 2008)
%%abc-creator hum2abc beta
%%abcx-conversion-date 2019/03/15 08:38:45
%%humdrum-veritas 129799595
%%humdrum-veritas-data 2377803302
%%linebreak <none>
%%barnumbers 0
L: 1/4
M: 2/4
K: Bb clef=bass
[K:clef=bass][M:2/4](C/A,/) A,/A,/ | 
CA, | 
G,(G,3//F,//) | 
G,B, | 
G,(B,3//G,//) | 
(G,/F,/) F,/ z/ | 
D,G,/F,/ | 
G,B, | 
G,G,/F,/ | 
G,z ||  
[M:3/4]D,G,/G,/G, :|]|:  
[M:2/4]B,B,/B,/ | 
CB, | 
G,G,/F,/ | 
G,F, | 
D,G,/F,/ | 
G,B, | 
G,B,3//G,// | 
G,z | 
[M:3/4]D,G,/G,/G, ||  
[M:2/4]G,G,/G,/ ||  
[M:3/4]F,z2 | 
D,F,/F,/F, :|]  



